source/img/how-learn__tick.svg

<svg width="97" height="97" viewBox="0 0 97 97" fill="none" xmlns="http://www.w3.org/2000/svg">
<path d="M7.09424 74.1953C9.01522 77.2575 11.2786 80.0914 13.8272 82.659L16.4899 80.0343C14.1315 77.6759 12.0393 75.0322 10.2895 72.2173L7.09424 74.1953Z" fill="url(#paint0_linear)"/>
<path d="M0 53.9206C0.399412 57.5153 1.19824 61.053 2.39647 64.4575L5.93412 63.2212C4.83098 60.083 4.08922 56.8116 3.72784 53.5022L0 53.9206Z" fill="url(#paint1_linear)"/>
<path d="M5.9151 33.8169L2.37745 32.5996C1.19824 35.9851 0.399412 39.5418 0 43.1365L3.72784 43.5359C4.08922 40.2265 4.83098 36.9551 5.9151 33.8169Z" fill="url(#paint2_linear)"/>
<path d="M16.4328 17.0036L13.7701 14.3789C11.2214 16.9466 8.95811 19.7995 7.05615 22.8426L10.2324 24.8207C12.0012 22.0058 14.0934 19.3811 16.4328 17.0036Z" fill="url(#paint3_linear)"/>
<path d="M33.1892 6.35261L31.9339 2.83398C28.5294 4.05124 25.258 5.64889 22.2148 7.58889L24.2309 10.7271C27.0268 8.93928 30.0509 7.47477 33.1892 6.35261Z" fill="url(#paint4_linear)"/>
<path d="M22.2339 89.4302C25.296 91.3702 28.5674 92.9679 31.9529 94.1851L33.2082 90.6665C30.07 89.5443 27.0458 88.0798 24.2309 86.2729L22.2339 89.4302Z" fill="url(#paint5_linear)"/>
<path d="M48.3478 0C46.4078 0 44.4488 0.114118 42.5278 0.342353L42.9653 4.05118C44.7531 3.84196 46.56 3.72784 48.3478 3.72784C73.1114 3.72784 93.2531 23.8125 93.2531 48.5C93.2531 73.1874 73.1114 93.2722 48.3478 93.2722C46.56 93.2722 44.7341 93.158 42.9653 92.9488L42.5278 96.6576C44.4488 96.8859 46.4078 97 48.3478 97C75.1845 97 97 75.2416 97 48.5C97 21.7584 75.1845 0 48.3478 0Z" fill="url(#paint6_linear)"/>
<path d="M40.8731 67.044C38.9521 67.044 37.0311 66.3213 35.5856 64.8568L21.397 50.7062L26.6844 45.4377L40.8731 59.5883L70.0491 30.5264L75.3366 35.7948L46.1605 64.8568C44.696 66.3023 42.794 67.044 40.8731 67.044Z" fill="url(#paint7_linear)"/>
<defs>
<linearGradient id="paint0_linear" x1="11.7799" y1="-3.41921" x2="11.7799" y2="99.1785" gradientUnits="userSpaceOnUse">
<stop stop-color="#00C6FF"/>
<stop offset="1" stop-color="#0072FF"/>
</linearGradient>
<linearGradient id="paint1_linear" x1="2.96877" y1="-3.41904" x2="2.96877" y2="99.1787" gradientUnits="userSpaceOnUse">
<stop stop-color="#00C6FF"/>
<stop offset="1" stop-color="#0072FF"/>
</linearGradient>
<linearGradient id="paint2_linear" x1="2.95945" y1="-3.41916" x2="2.95945" y2="99.1787" gradientUnits="userSpaceOnUse">
<stop stop-color="#00C6FF"/>
<stop offset="1" stop-color="#0072FF"/>
</linearGradient>
<linearGradient id="paint3_linear" x1="11.75" y1="-3.41907" x2="11.75" y2="99.1788" gradientUnits="userSpaceOnUse">
<stop stop-color="#00C6FF"/>
<stop offset="1" stop-color="#0072FF"/>
</linearGradient>
<linearGradient id="paint4_linear" x1="27.6925" y1="-3.41909" x2="27.6925" y2="99.1787" gradientUnits="userSpaceOnUse">
<stop stop-color="#00C6FF"/>
<stop offset="1" stop-color="#0072FF"/>
</linearGradient>
<linearGradient id="paint5_linear" x1="27.7372" y1="-3.41922" x2="27.7372" y2="99.1787" gradientUnits="userSpaceOnUse">
<stop stop-color="#00C6FF"/>
<stop offset="1" stop-color="#0072FF"/>
</linearGradient>
<linearGradient id="paint6_linear" x1="69.7626" y1="-3.41915" x2="69.7626" y2="99.1787" gradientUnits="userSpaceOnUse">
<stop stop-color="#00C6FF"/>
<stop offset="1" stop-color="#0072FF"/>
</linearGradient>
<linearGradient id="paint7_linear" x1="48.3525" y1="27.3594" x2="48.3525" y2="73.1883" gradientUnits="userSpaceOnUse">
<stop stop-color="#70DFFF"/>
<stop offset="1" stop-color="#70AFFF"/>
</linearGradient>
</defs>
</svg>

<?xml version="1.0" encoding="utf-8"?>
<!-- Generator: Adobe Illustrator 24.1.3, SVG Export Plug-In . SVG Version: 6.00 Build 0)  -->
<svg version="1.1" id="Слой_1" xmlns="http://www.w3.org/2000/svg" xmlns:xlink="http://www.w3.org/1999/xlink" x="0px" y="0px"
	 viewBox="0 0 97 97" style="enable-background:new 0 0 97 97;" xml:space="preserve">
<style type="text/css">
	.st0{fill:#182F52;}
	.st1{fill:#57ACFF;}
</style>
<path class="st0" d="M7.1,74.2c1.9,3.1,4.2,5.9,6.7,8.5l2.7-2.6c-2.4-2.4-4.5-5-6.2-7.8L7.1,74.2z"/>
<path class="st0" d="M0,53.9c0.4,3.6,1.2,7.1,2.4,10.5l3.5-1.2c-1.1-3.1-1.8-6.4-2.2-9.7L0,53.9z"/>
<path class="st0" d="M5.9,33.8l-3.5-1.2C1.2,36,0.4,39.5,0,43.1l3.7,0.4C4.1,40.2,4.8,37,5.9,33.8z"/>
<path class="st0" d="M16.4,17l-2.7-2.6c-2.5,2.6-4.8,5.4-6.7,8.5l3.2,2C12,22,14.1,19.4,16.4,17z"/>
<path class="st0" d="M33.2,6.4l-1.3-3.5c-3.4,1.2-6.7,2.8-9.7,4.8l2,3.1C27,8.9,30.1,7.5,33.2,6.4z"/>
<path class="st0" d="M22.2,89.4c3.1,1.9,6.3,3.5,9.7,4.8l1.3-3.5c-3.1-1.1-6.2-2.6-9-4.4L22.2,89.4z"/>
<path class="st0" d="M48.3,0c-1.9,0-3.9,0.1-5.8,0.3L43,4.1c1.8-0.2,3.6-0.3,5.4-0.3c24.8,0,44.9,20.1,44.9,44.8
	c0,24.7-20.1,44.8-44.9,44.8c-1.8,0-3.6-0.1-5.4-0.3l-0.4,3.7c1.9,0.2,3.9,0.3,5.8,0.3C75.2,97,97,75.2,97,48.5S75.2,0,48.3,0z"/>
<path class="st1" d="M40.9,67c-1.9,0-3.8-0.7-5.3-2.2L21.4,50.7l5.3-5.3l14.2,14.2L70,30.5l5.3,5.3L46.2,64.9
	C44.7,66.3,42.8,67,40.9,67z"/>
</svg>
